resources/drawables/launcher_icon.svg

<?xml version="1.0" encoding="UTF-8" standalone="no"?>
<svg
   xml:space="preserve"
   viewBox="-.559 .229 118.524 118.532"
   version="1.1"
   id="svg2"
   sodipodi:docname="launcher_icon.svg"
   inkscape:version="1.4.3 (0d15f75, 2025-12-25)"
   xmlns:inkscape="http://www.inkscape.org/namespaces/inkscape"
   xmlns:sodipodi="http://sodipodi.sourceforge.net/DTD/sodipodi-0.dtd"
   xmlns="http://www.w3.org/2000/svg"
   xmlns:svg="http://www.w3.org/2000/svg"><defs
   id="defs2" /><sodipodi:namedview
   id="namedview2"
   pagecolor="#ffffff"
   bordercolor="#000000"
   borderopacity="0.25"
   inkscape:showpageshadow="2"
   inkscape:pageopacity="0.0"
   inkscape:pagecheckerboard="0"
   inkscape:deskcolor="#d1d1d1"
   inkscape:zoom="4.3322562"
   inkscape:cx="60.245745"
   inkscape:cy="63.361904"
   inkscape:window-width="1920"
   inkscape:window-height="1111"
   inkscape:window-x="-9"
   inkscape:window-y="-9"
   inkscape:window-maximized="1"
   inkscape:current-layer="svg2" />
  
  
<g
   style="fill:#008033;fill-opacity:1"
   id="g6"
   transform="matrix(2.37048,0,0,2.37048,-0.55900008,0.23299792)"><path
     d="M 12,0 C 5.4375,0 3,2.167969 3,8 v 33 c 0,1.359375 0.398438,2.339844 1,3.0625 V 47 c 0,1.652344 1.347656,3 3,3 h 4 c 1.652344,0 3,-1.347656 3,-3 v -1 h 22 v 1 c 0,1.652344 1.347656,3 3,3 h 4 c 1.652344,0 3,-1.347656 3,-3 V 44.0625 C 46.601563,43.339844 47,42.359375 47,41 V 9 C 47,4.644531 46.460938,0 40,0 Z m 3,4 h 21 c 0.554688,0 1,0.449219 1,1 v 2 c 0,0.550781 -0.445312,1 -1,1 H 15 C 14.449219,8 14,7.550781 14,7 V 5 c 0,-0.550781 0.449219,-1 1,-1 z m -4,7 h 28 c 2,0 3,1 3,3 v 12 c 0,2 -1.953125,2.9375 -3,2.9375 L 11,29 C 9,29 8,28 8,26 V 14 c 0,-2 1,-3 3,-3 z m -9,1 c -1.101562,0 -2,0.898438 -2,2 v 8 c 0,1.101563 0.898438,2 2,2 z m 46,0 v 12 c 1.105469,0 2,-0.898437 2,-2 v -8 c 0,-1.101562 -0.894531,-2 -2,-2 z M 11.5,34 C 13.433594,34 15,35.566406 15,37.5 15,39.433594 13.433594,41 11.5,41 9.566406,41 8,39.433594 8,37.5 8,35.566406 9.566406,34 11.5,34 Z m 27,0 C 40.433594,34 42,35.566406 42,37.5 42,39.433594 40.433594,41 38.5,41 36.566406,41 35,39.433594 35,37.5 35,35.566406 36.566406,34 38.5,34 Z"
     id="path1-4"
     style="fill:#008033;fill-opacity:1" /></g></svg>

<?xml version="1.0" encoding="UTF-8"?><svg version="1.1" viewBox="-.559 .229 118.52 118.53" xml:space="preserve" xmlns="http://www.w3.org/2000/svg"><path d="m15.808 5.4014c-6.1756 0-11.196 5.0201-11.196 11.202v85.812c0 6.161 5.0201 11.174 11.196 11.174h85.812c6.161 0 11.174-5.0128 11.174-11.174v-85.813c0-6.182-5.0128-11.202-11.174-11.202h-85.811z" fill="#008033" stroke-width=".91274"/><g transform="matrix(1.4924 0 0 1.4924 21.394 22.186)" fill="#fff"><path d="m12 0c-6.5625 0-9 2.168-9 8v33c0 1.3594 0.39844 2.3398 1 3.0625v2.9375c0 1.6523 1.3477 3 3 3h4c1.6523 0 3-1.3477 3-3v-1h22v1c0 1.6523 1.3477 3 3 3h4c1.6523 0 3-1.3477 3-3v-2.9375c0.60156-0.72266 1-1.7031 1-3.0625v-32c0-4.3555-0.53906-9-7-9zm3 4h21c0.55469 0 1 0.44922 1 1v2c0 0.55078-0.44531 1-1 1h-21c-0.55078 0-1-0.44922-1-1v-2c0-0.55078 0.44922-1 1-1zm-4 7h28c2 0 3 1 3 3v12c0 2-1.9531 2.9375-3 2.9375l-28 0.0625c-2 0-3-1-3-3v-12c0-2 1-3 3-3zm-9 1c-1.1016 0-2 0.89844-2 2v8c0 1.1016 0.89844 2 2 2zm46 0v12c1.1055 0 2-0.89844 2-2v-8c0-1.1016-0.89453-2-2-2zm-36.5 22c1.9336 0 3.5 1.5664 3.5 3.5s-1.5664 3.5-3.5 3.5-3.5-1.5664-3.5-3.5 1.5664-3.5 3.5-3.5zm27 0c1.9336 0 3.5 1.5664 3.5 3.5s-1.5664 3.5-3.5 3.5-3.5-1.5664-3.5-3.5 1.5664-3.5 3.5-3.5z" fill="#fff"/></g></svg>
